src/assets/icons/filters/categories/motorbike_stroke.svg

<svg width="48" height="34" viewBox="0 0 48 34" fill="none" xmlns="http://www.w3.org/2000/svg">
<path fill-rule="evenodd" clip-rule="evenodd" d="M40.6945 30.337C39.464 30.3342 38.2849 29.8437 37.4156 28.9729C36.5462 28.1022 36.0576 26.9223 36.0568 25.6918C36.0568 24.9302 36.2604 24.2213 36.5847 23.5864L39.6915 26.6978C39.8229 26.8301 39.9791 26.935 40.1513 27.0064C40.3234 27.0779 40.5081 27.1145 40.6945 27.114C40.9756 27.1136 41.2503 27.0298 41.4838 26.8733C41.7173 26.7168 41.8992 26.4946 42.0066 26.2348C42.1139 25.9749 42.1418 25.6891 42.0868 25.4135C42.0317 25.1378 41.8963 24.8846 41.6974 24.6859L38.5936 21.576C39.227 21.2472 39.9328 21.0481 40.6945 21.0481C41.9248 21.0505 43.1039 21.5407 43.9733 22.4113C44.8427 23.2818 45.3313 24.4615 45.3321 25.6918C45.3321 28.2527 43.2508 30.337 40.6945 30.337ZM28.7572 24.2696H20.8348C20.129 18.1283 14.9348 12.9251 8.80253 12.2193V11.2842C8.80305 9.34434 9.47121 7.46376 10.6948 5.95844C11.9183 4.45312 13.6226 3.41477 15.5215 3.01787L15.069 5.73862C15.0645 5.76426 15.069 5.78839 15.0675 5.81403C15.0615 5.85777 15.0645 5.89698 15.063 5.94072C15.0599 6.07973 15.0772 6.21844 15.1143 6.35245C15.1203 6.37507 15.1143 6.39769 15.1233 6.42333L16.6375 10.9735C16.6496 11.0112 16.6752 11.0399 16.6918 11.0761C16.7024 11.1047 16.6994 11.1334 16.7129 11.1605C16.728 11.1907 16.7582 11.2103 16.7748 11.2389C16.8366 11.346 16.9105 11.438 16.998 11.5225C17.0342 11.5602 17.0658 11.5979 17.1081 11.6326C17.2287 11.7261 17.3614 11.803 17.5032 11.8543C17.5153 11.8603 17.5273 11.8694 17.5394 11.8724C17.6824 11.9201 17.8321 11.9445 17.9828 11.9448C17.9994 11.9448 18.0175 11.9372 18.0341 11.9372C18.0839 11.9372 18.1321 11.9222 18.1834 11.9116C18.2648 11.901 18.3493 11.8995 18.4307 11.8724C18.4654 11.8603 18.4865 11.8362 18.5182 11.8211C18.5499 11.8105 18.5861 11.8105 18.6178 11.7955C20.0083 11.0987 21.4109 10.9418 22.6763 11.346C23.9386 11.7472 24.9672 12.6793 25.6444 14.0411C25.8842 14.5192 26.3683 14.8224 26.9007 14.8269L34.2334 14.8993C31.2789 17.1405 29.1886 20.5293 28.7587 24.2681L28.7572 24.2696ZM12.021 25.6903C12.021 28.2512 9.9397 30.3355 7.38334 30.3355C6.15136 30.3355 4.96983 29.8461 4.09869 28.975C3.22755 28.1038 2.73815 26.9223 2.73815 25.6903C2.73815 24.4583 3.22755 23.2768 4.09869 22.4057C4.96983 21.5345 6.15136 21.0451 7.38334 21.0451C7.82222 21.0451 8.23847 21.1251 8.63965 21.2412L6.20243 24.903C6.06026 25.1169 5.97867 25.3653 5.9663 25.6219C5.95394 25.8784 6.01127 26.1335 6.13221 26.36C6.25315 26.5866 6.43318 26.7762 6.6532 26.9087C6.87322 27.0412 7.125 27.1116 7.38183 27.1125C7.61592 27.1129 7.84644 27.0552 8.05279 26.9447C8.25913 26.8341 8.43486 26.6742 8.56424 26.4791L10.9999 22.8202C11.6564 23.6332 12.0165 24.6454 12.021 25.6903V25.6903ZM40.6945 18.2022C39.2018 18.2003 37.7432 18.6487 36.5093 19.4887L35.0192 17.9956C36.8878 16.1948 39.3778 14.9792 42.2072 14.9792C42.5844 14.9812 42.9469 14.8333 43.215 14.568C43.4832 14.3027 43.6349 13.9418 43.6369 13.5646C43.6389 13.1874 43.491 12.8248 43.2257 12.5567C42.9604 12.2886 42.5995 12.1368 42.2223 12.1348L27.7483 11.9915C26.7272 10.3597 25.2568 9.18179 23.5359 8.63433C22.0534 8.16528 20.4366 8.17885 18.8576 8.65393L18.2045 6.6933L20.132 5.72806C20.4601 5.55432 20.7072 5.25916 20.8206 4.90564C20.934 4.55212 20.9047 4.16827 20.7389 3.83608C20.5731 3.5039 20.284 3.24971 19.9333 3.12783C19.5826 3.00594 19.1982 3.02602 18.8621 3.18377L18.3282 3.45222L18.6253 1.65598C18.6599 1.45245 18.6494 1.2438 18.5947 1.04473C18.54 0.845664 18.4423 0.661001 18.3086 0.503735C18.1759 0.345652 18.0102 0.218608 17.8231 0.131569C17.636 0.0445305 17.4321 -0.000381958 17.2257 2.44689e-06C11.0165 2.44689e-06 5.96414 5.06145 5.96414 11.2812V13.5555C5.96414 14.3428 6.59758 14.9777 7.38334 14.9777C9.07401 14.9777 10.6365 15.4196 12.0285 16.1496L10.273 18.7859C9.35856 18.3999 8.37592 18.2014 7.38334 18.2022C5.41557 18.2301 3.53787 19.0314 2.15622 20.4328C0.774565 21.8342 0 23.7231 0 25.6911C0 27.659 0.774565 29.5479 2.15622 30.9493C3.53787 32.3507 5.41557 33.152 7.38334 33.1799C9.36735 33.1763 11.2689 32.3857 12.6705 30.9815C14.0722 29.5773 14.8594 27.6743 14.8594 25.6903C14.8599 24.6995 14.6633 23.7185 14.2808 22.8044C13.8984 21.8904 13.3378 21.0616 12.6318 20.3664L14.3541 17.7814C16.6601 19.8868 18.0763 22.8791 18.0763 25.6903C18.0763 26.4761 18.7128 27.1125 19.4955 27.1125H30.095C30.8792 27.1125 31.5142 26.4761 31.5142 25.6903C31.5142 23.8398 32.1325 21.9093 33.2109 20.2036L34.5019 21.5006C33.7425 22.6262 33.3033 23.937 33.2312 25.2929C33.1592 26.6488 33.457 27.9988 34.0929 29.1985C34.7288 30.3982 35.6788 31.4025 36.8413 32.1041C38.0038 32.8056 39.3352 33.178 40.693 33.1814C42.6473 33.1334 44.5054 32.3233 45.8706 30.9241C47.2358 29.5249 48 27.6475 48 25.6926C48 23.7377 47.2358 21.8602 45.8706 20.461C44.5054 19.0618 42.6473 18.2518 40.693 18.2037" fill="black"/>
</svg>

<svg width="48" height="34" viewBox="0 0 48 34" fill="none" xmlns="http://www.w3.org/2000/svg"><path fill-rule="evenodd" clip-rule="evenodd" d="M40.694 30.337a4.648 4.648 0 01-4.637-4.645c0-.762.203-1.47.528-2.106l3.106 3.112a1.408 1.408 0 001.003.416 1.421 1.421 0 001.003-2.428l-3.103-3.11a4.532 4.532 0 012.1-.528 4.646 4.646 0 014.638 4.644 4.648 4.648 0 01-4.638 4.645zM28.758 24.27h-7.922c-.706-6.142-5.9-11.345-12.032-12.05v-.936a8.447 8.447 0 016.718-8.266l-.452 2.72c-.005.026 0 .05-.002.076-.005.044-.002.083-.004.127-.003.139.014.277.051.411.006.023 0 .046.01.071l1.513 4.55c.013.038.038.067.055.103.01.029.007.057.02.085.016.03.046.05.063.078.062.107.136.199.223.284.036.037.068.075.11.11.12.093.253.17.395.221.012.006.024.015.036.018.143.048.293.072.444.073.016 0 .034-.008.051-.008.05 0 .098-.015.15-.025.08-.011.165-.013.247-.04.034-.012.055-.036.087-.05.032-.011.068-.011.1-.026 1.39-.697 2.793-.854 4.058-.45 1.263.401 2.291 1.333 2.968 2.695.24.478.724.781 1.257.786l7.332.072c-2.954 2.242-5.044 5.63-5.474 9.37h-.002zm-16.736 1.42a4.648 4.648 0 01-4.638 4.645 4.645 4.645 0 010-9.29c.44 0 .855.08 1.257.196l-2.438 3.662a1.422 1.422 0 001.85 2.042c.207-.11.383-.27.512-.466L11 22.82a4.6 4.6 0 011.021 2.87zm28.673-7.488a7.42 7.42 0 00-4.185 1.287l-1.49-1.493c1.869-1.801 4.359-3.017 7.188-3.017a1.422 1.422 0 10.015-2.844l-14.474-.143c-1.02-1.632-2.491-2.81-4.212-3.358-1.483-.469-3.1-.455-4.678.02l-.654-1.96 1.928-.966a1.422 1.422 0 00-1.27-2.544l-.534.268.297-1.796A1.413 1.413 0 0018.31.504 1.41 1.41 0 0017.226 0C11.016 0 5.964 5.061 5.964 11.281v2.274c0 .788.634 1.423 1.42 1.423 1.69 0 3.252.442 4.644 1.172l-1.755 2.636a7.415 7.415 0 00-2.89-.584 7.49 7.49 0 000 14.978 7.49 7.49 0 006.898-10.376 7.466 7.466 0 00-1.65-2.438l1.723-2.585c2.306 2.106 3.722 5.098 3.722 7.91 0 .785.637 1.422 1.42 1.422h10.599a1.42 1.42 0 001.42-1.423c0-1.85.617-3.78 1.696-5.486L34.5 21.5a7.492 7.492 0 006.192 11.68 7.49 7.49 0 000-14.977" fill="#000"/></svg>
